svgs/light/house-user.svg

<svg xmlns="http://www.w3.org/2000/svg" viewBox="0 0 576 512"><!--! Font Awesome Pro 6.4.0 by @fontawesome - https://fontawesome.com License - https://fontawesome.com/license (Commercial License) Copyright 2023 Fonticons, Inc. --><path d="M277.4 4c6-5.3 15.1-5.3 21.2 0l272 240c6.6 5.8 7.3 16 1.4 22.6s-16 7.3-22.6 1.4L512 235V432c0 44.2-35.8 80-80 80H144c-44.2 0-80-35.8-80-80V235L26.6 268C20 273.8 9.8 273.2 4 266.6S-1.2 249.8 5.4 244L277.4 4zM96 206.7V432c0 26.5 21.5 48 48 48H432c26.5 0 48-21.5 48-48V206.7L288 37.3 96 206.7zM288 256a32 32 0 1 0 0-64 32 32 0 1 0 0 64zm0-96a64 64 0 1 1 0 128 64 64 0 1 1 0-128zM208 392v8c0 8.8-7.2 16-16 16s-16-7.2-16-16v-8c0-39.8 32.2-72 72-72h80c39.8 0 72 32.2 72 72v8c0 8.8-7.2 16-16 16s-16-7.2-16-16v-8c0-22.1-17.9-40-40-40H248c-22.1 0-40 17.9-40 40z"/></svg>

<svg xmlns="http://www.w3.org/2000/svg" viewBox="0 0 576 512"><!--! Font Awesome Pro 6.3.0 by @fontawesome - https://fontawesome.com License - https://fontawesome.com/license (Commercial License) Copyright 2023 Fonticons, Inc. --><path d="M223.1 224C223.1 188.7 252.7 160 288 160C323.3 160 352 188.7 352 224C352 259.3 323.3 288 288 288C252.7 288 223.1 259.3 223.1 224zM288 256C305.7 256 320 241.7 320 224C320 206.3 305.7 192 288 192C270.3 192 255.1 206.3 255.1 224C255.1 241.7 270.3 256 288 256zM207.1 400C207.1 408.8 200.8 416 191.1 416C183.2 416 175.1 408.8 175.1 400V392C175.1 352.2 208.2 320 247.1 320H328C367.8 320 400 352.2 400 392V400C400 408.8 392.8 416 384 416C375.2 416 368 408.8 368 400V392C368 369.9 350.1 352 328 352H247.1C225.9 352 207.1 369.9 207.1 392V400zM277.4 4.002C283.5-1.334 292.5-1.334 298.6 4.002L570.6 244C577.2 249.8 577.8 259.1 571.1 266.6C566.2 273.2 556 273.8 549.4 267.1L512 234.1V432C512 476.2 476.2 512 432 512H144C99.82 512 64 476.2 64 432V234.1L26.59 267.1C19.96 273.8 9.849 273.2 4.003 266.6C-1.844 259.1-1.212 249.8 5.414 244L277.4 4.002zM96 206.7V432C96 458.5 117.5 480 144 480H432C458.5 480 480 458.5 480 432V206.7L288 37.34L96 206.7z"/></svg>
